X:639
T:The end of the day
R:Jig
O:Ireland
B:Krassen O'Neill's p45
B:O'Neill's 950
S:O'Neill's 950
Z:Transcription:Tom Keays, chords:Mike Long
M:6/8
L:1/8
K:G
"G"B>AB G2D|G>AG GBd|"C"cBA "(G)"GFG|"D"Ade dcA|\
"G"B>AB G2D|GAG GBd|\
"C"gfe "G"dcB|"D"AFA cBA:|
|:"G"B2d ded|dBd gdc|B2d ded|\
"C"ece "D"afd|\
"G"B2d ded|ded def|"C"gfe "G"dcB|"D"AFA cBA:|
